!!!!SEGMENT: pl-kk--kk-i-1--033_anonim--festum-mariae-celebramus.krn
!!!cenid: 15xx:746
!!!COM: Anonim
!!!COM-rismid: pe30004985
!!!CDT:
!!!CNT:
!!!OTL: Festum Mariae celebramus
!!!PDT:
!!!AGN:
!!!SMS-siglum: PL-Kk
!!!SMS-shelfmark: Kk.I.1
!!!SMS-shelfwork: 033 W
!!!SMS-variant:
!!!SMS-altvar:
!!!NIFC-rismid: 300257987
!!!URL-scan: http://repozytorium.nifc.pl/skany/pl-kk-nut--i-1
!!!ONB-nifc: UWAGA: Cantus (s. 123v-126r, skan 0126-0128), Altus (s. 118v-121v, skan 0312-0315), Tenor (s. 104v-106v, skan 0495-0497), Bassus (s. 111v-114v, skan 0674-0677).
!!!key: F:lyd
**kern	**text	**text	**kern	**text	**text	**text	**kern	**text	**text	**kern	**text	**text
*part4	*part4	*part4	*part3	*part3	*part3	*part3	*part2	*part2	*part2	*part1	*part1	*part1
*staff4	*staff4	*staff4	*staff3	*staff3	*staff3	*staff3	*staff2	*staff2	*staff2	*staff1	*staff1	*staff1
*I"BASSVS	*	*	*I"TENOR	*	*	*	*I"ALTVS	*	*	*I"CANTVS	*	*
*I'B	*	*	*I'T	*	*	*	*I'A	*	*	*I'C	*	*
*Ibass	*	*	*Itenor	*	*	*	*Ialto	*	*	*Isoprn	*	*
*ICvox	*	*	*ICvox	*	*	*	*ICvox	*	*	*ICvox	*	*
*clefF4	*	*	*clefC4	*	*	*	*clefC4	*	*	*clefC3	*	*
*k[b-]	*	*	*k[b-]	*	*	*	*k[b-]	*	*	*k[b-]	*	*
*F:lyd	*	*	*F:lyd	*	*	*	*F:lyd	*	*	*F:lyd	*	*
*M2/1	*	*	*M2/1	*	*	*	*M2/1	*	*	*M2/1	*	*
*met(C)	*	*	*met(C)	*	*	*	*met(C)	*	*	*met(C)	*	*
*all\middle	*	*	*all\middle	*	*	*	*all\middle	*	*	*all\middle	*	*
=1-	=1-	=1-	=1-	=1-	=1-	=1-	=1-	=1-	=1-	=1-	=1-	=1-
!	!	!	!LO:TX:t=P:problem=dopisany alternatywny tekst "Tollite portas"	!	!	!	!	!	!	!	!	!
1C	Feſ-	.	1C	Tol-	FE-	.	1G	Feſ-	.	1c	Feſ-	.
1FF	-tum	.	1F	.	-ſtum	.	2A/	-tum	.	4c/	-tum	.
.	.	.	.	.	.	.	.	.	.	4B-/	.	.
.	.	.	.	.	.	.	2c\	Ma-	.	4A/	.	.
.	.	.	.	.	.	.	.	.	.	4G/	.	.
=2-	=2-	=2-	=2-	=2-	=2-	=2-	=2-	=2-	=2-	=2-	=2-	=2-
1FF	Ma-	.	1F	.	ma-	.	0c	-ri-	.	2F/	.	.
.	.	.	.	.	.	.	.	.	.	1f	ma-	.
1C	-ri-	.	1G	-li-	-ri-	.	.	.	.	.	.	.
.	.	.	.	.	.	.	.	.	.	2e\	-ri-	.
=3-	=3-	=3-	=3-	=3-	=3-	=3-	=3-	=3-	=3-	=3-	=3-	=3-
2FF/	-ae	.	0F	-te	-ae	.	2A\	-ae	.	2c/	-e	.
1BB-	ce-	.	.	.	.	.	1B-	cae-	.	1d	ce-	.
2AA/	-le-	.	.	.	.	.	2c\	-le-	.	2c/	-le-	.
=4-	=4-	=4-	=4-	=4-	=4-	=4-	=4-	=4-	=4-	=4-	=4-	=4-
1GG	-bre-	.	1B-	por-	ve-	.	1d	-brae-	.	2B-/	-bra-	.
.	.	.	.	.	.	.	.	.	.	2G/	.	.
2AA/	-mus	.	1A	.	-ne-	.	2c\	-mus	.	1c	-m(us)	.
2FF/	hac	.	.	.	.	.	1f\	hac	.	.	.	.
=5-	=5-	=5-	=5-	=5-	=5-	=5-	=5-	=5-	=5-	=5-	=5-	=5-
1C	di-	.	1G	.	-re-	.	.	.	.	0c	in	.
.	.	.	.	.	.	.	2e\	di-	.	.	.	.
*custos:F	*	*	*	*	*	*	*	*	*	*	*	*
2FF/	-e	.	1A	.	-mur	.	2f\	-e	.	.	.	.
!LO:PB:g=original	!	!	!	!	!	!	!	!	!	!	!	!
2.F\	iu-	.	.	.	.	.	2F/	iu-	.	.	.	.
=6-	=6-	=6-	=6-	=6-	=6-	=6-	=6-	=6-	=6-	=6-	=6-	=6-
*	*	*	*	*	*	*	*custos:d	*	*	*custos:f	*	*
.	.	.	1F	.	hac	.	2A/	-gi-	.	2A/	hac	.
4E/	.	.	.	.	.	.	.	.	.	.	.	.
!	!	!	!	!	!	!	!LO:LB:g=original	!	!	!LO:LB:g=original	!	!
4D/	.	.	.	.	.	.	2.d\	.	.	1f	di-	.
4C/	.	.	.	.	.	.	.	.	.	.	.	.
2BB-/	.	.	1G	.	di-	.	.	.	.	.	.	.
.	.	.	.	.	.	.	4c\	-ter	.	.	.	.
!	!	!	!	!	!	!	!LO:SIC:v:l:s=pſal-:verse 1	!	!	!	!	!
2C/	-gi-	.	.	.	.	.	1c\	pſa-	.	2e\	-e	.
=7-	=7-	=7-	=7-	=7-	=7-	=7-	=7-	=7-	=7-	=7-	=7-	=7-
2AA/	-ter	.	1F	-tas	-e	.	.	.	.	2c\	iu-	.
2BB-/	.	.	.	.	.	.	2B-\	-len-	.	2d\	-gi-	.
*	*	*	*custos:G	*	*	*	*	*	*	*	*	*
!LO:SIC:v:l:s=pſal-:verse 1	!	!	!	!	!	!	!	!	!	!	!	!
2AA/	pſa-	.	1A	Prin-	iu-	.	0c	-tes	.	2e\	-ter	.
!	!	!	!	!	!	!	!	!	!	!LO:SIC:v:l:s=pſal-:verse 1	!	!
2FF/	.	.	.	.	.	.	.	.	.	1f\	pſa-	.
=8-	=8-	=8-	=8-	=8-	=8-	=8-	=8-	=8-	=8-	=8-	=8-	=8-
!	!	!	!LO:LB:g=original	!	!	!	!	!	!	!	!	!
1C	-len-	.	1G	-ci-	-gi-	.	.	.	.	.	.	.
.	.	.	.	.	.	.	.	.	.	2e\	-len-	.
1FF	-tes	.	1F	-pes	-ter	.	2A/	.	.	1f	-(tes)	.
*	*	*	*	*	*	*	*	*ij	*	*	*	*
.	.	.	.	.	.	.	2.F/	iu-	.	.	.	.
=9-	=9-	=9-	=9-	=9-	=9-	=9-	=9-	=9-	=9-	=9-	=9-	=9-
*	*	*	*	*	*	*	*	*	*	*	*ij	*
!	!	!	!LO:SIC:v:l:s=pſal-:verse 2	!	!	!	!	!	!	!	!	!
2r	.	.	1A	ves-	pſa-	.	.	.	.	2.F/	iu-	.
.	.	.	.	.	.	.	4G/	.	.	.	.	.
*	*ij	*	*	*	*	*	*	*	*	*	*	*
2.FF/	iu-	.	.	.	.	.	4A/	.	.	.	.	.
.	.	.	.	.	.	.	4B-/	.	.	4G/	.	.
.	.	.	1A	-tras	-len-	.	2c\	.	.	4A/	.	.
4GG/	.	.	.	.	.	.	.	.	.	4B-/	.	.
2AA/	-gi-	.	.	.	.	.	2F/	-gi-	.	2c/	-gi-	.
=10-	=10-	=10-	=10-	=10-	=10-	=10-	=10-	=10-	=10-	=10-	=10-	=10-
2BB-/	-ter	.	00F;l\	.	-tes	.	2B-\	-ter	.	2d\	-ter	.
!LO:SIC:v:l:s=pſal-:verse 1	!	!	!	!	!	!	!LO:SIC:v:l:s=pſal-:verse 1	!	!	!	!	!
2AA/	pſa-	.	.	.	.	.	2c\	pſa-	.	2c/	pſa-	.
1BB-	-len-	.	.	.	.	.	1d	-len-	.	1B-	-len-	.
=11-	=11-	=11-	=11-	=11-	=11-	=11-	=11-	=11-	=11-	=11-	=11-	=11-
*custos:F	*	*	*	*	*	*	*custos:c	*	*	*	*	*
*	*	*	*	*	*	*	*	*	*	*custos:f	*	*
!	!	!	!	!	!	!	!	!	!	!LO:TX:t=P:problem=liczby nad longami określają długość trwania wersetu 	!	!
!	!	!	!	!	!	!	!	!	!	!LO:TX:a:t=21	!	!
!LO:TX:a:t=21	!	!	!	!	!	!	!LO:TX:a:t=21	!	!	!	!	!
0FF;l	-tes	.	.	.	.	.	0c;<l	-tes	.	0A;l\	-(tes)	.
*	*Xij	*	*	*	*	*	*	*Xij	*	*	*Xij	*
=12-	=12-	=12-	=12-	=12-	=12-	=12-	=12-	=12-	=12-	=12-	=12-	=12-
!LO:LB:g=original	!	!	!	!	!	!	!LO:PB:g=original	!	!	!LO:LB:g=original	!	!
1F	Au-	.	1F	et	Au-	.	1c	Au-	.	2r	.	.
.	.	.	.	.	.	.	.	.	.	1f	Au-	.
1C	-di	.	1G	e-	-di	.	1c	-di	.	.	.	.
.	.	.	.	.	.	.	.	.	.	2e\	-di	.
=13-	=13-	=13-	=13-	=13-	=13-	=13-	=13-	=13-	=13-	=13-	=13-	=13-
!	!	!	!LO:SIC:v:l:s=vir-:verse 2	!	!	!	!	!	!	!	!	!
!LO:SIC:v:l:s=vir-:verse 1	!	!	!LO:SIC:v:l:s=vir-:verse 2	!	!	!	!	!	!	!LO:SIC:v:l:s=vir-:verse 1	!	!
1BB-	uir-	.	1B-	-le-	uir-	.	2r	.	.	1d	uir-	.
.	.	.	.	.	.	.	1f	au-	.	.	.	.
1C	-go	.	1G	.	-go	.	.	.	.	2c/	-go	.
.	.	.	.	.	.	.	2e\	.	.	2c/	gre-	.
=14-	=14-	=14-	=14-	=14-	=14-	=14-	=14-	=14-	=14-	=14-	=14-	=14-
2BB-/	gre-	.	1B-	-va-	gre-	.	1d	-di	.	1.f	-ge(m)	.
2.BB-/	-gem	.	.	.	.	.	.	.	.	.	.	.
!	!	!	!	!	!	!	!LO:SIC:v:l:s=vir-:verse 1	!	!	!	!	!
.	.	.	1B-	-mi-	-ge(m)	.	2d\	uir-	.	.	.	.
4C/	.	.	.	.	.	.	.	.	.	.	.	.
4D\	.	.	.	.	.	.	2B-/	-go	.	4e\	.	.
4E\	.	.	.	.	.	.	.	.	.	4d\	.	.
=15-	=15-	=15-	=15-	=15-	=15-	=15-	=15-	=15-	=15-	=15-	=15-	=15-
2F\	.	.	1F	-ni	ti-	.	2A/	gre-	.	2c/	ti-	.
2D\	ti-	.	.	.	.	.	1F	-ge(m)	.	2B-/	-bi	.
1C	-bi	.	1G	por-	-bi	.	.	.	.	1c	.	.
.	.	.	.	.	.	.	4E/	ti-	.	.	.	.
.	.	.	.	.	.	.	4D/	.	.	.	.	.
=16-	=16-	=16-	=16-	=16-	=16-	=16-	=16-	=16-	=16-	=16-	=16-	=16-
*	*	*	*custos:F	*	*	*	*	*	*	*	*	*
1C	lau-	.	1G	-tae	lau-	.	2E/	.	.	1c	lau-	.
.	.	.	.	.	.	.	2E/	-bi	.	.	.	.
!	!	!	!LO:PB:g=original	!	!	!	!	!	!	!	!	!
1FF	-des	.	1F	ae-	-des	.	1A	lau-	.	2c/	-des	.
.	.	.	.	.	.	.	.	.	.	2.f\	.	.
=17-	=17-	=17-	=17-	=17-	=17-	=17-	=17-	=17-	=17-	=17-	=17-	=17-
1BB-	ca-	.	1D	-ter-	ca-	.	2F/	-des	.	.	.	.
.	.	.	.	.	.	.	.	.	.	4e\	ca-	.
.	.	.	.	.	.	.	2B-/	ca-	.	2d\	-nen-	.
1C	-nen-	.	1E	-na-	-ne(n)-	.	1G	-nen-	.	1c	.	.
=18-	=18-	=18-	=18-	=18-	=18-	=18-	=18-	=18-	=18-	=18-	=18-	=18-
*custos:FF	*	*	*	*	*	*	*	*	*	*	*	*
*	*	*	*	*	*	*	*custos:A	*	*	*custos:c	*	*
!	!	!	!	!	!	!	!	!	!	!LO:TX:a:t=13	!	!
!LO:TX:a:t=13	!	!	!LO:TX:a:t=13	!	!	!	!	!	!	!	!	!
0FF;l	-te(m)	.	0F;l\	-les	-tem	.	0A;l	-te(m)	.	0c;l	-tem	.
=19-	=19-	=19-	=19-	=19-	=19-	=19-	=19-	=19-	=19-	=19-	=19-	=19-
!LO:LB:g=original	!	!	!	!	!	!	!LO:LB:g=original	!	!	!LO:LB:g=original	!	!
1FF	Con-	.	1F	e-	Con-	.	1A	Con-	.	1c	Con-	.
1.BB-	-cep-	.	1D	.	-cep-	.	2.F/	.	.	1.d	-cep-	.
.	.	.	.	.	.	.	4E/	-cep-	.	.	.	.
=20-	=20-	=20-	=20-	=20-	=20-	=20-	=20-	=20-	=20-	=20-	=20-	=20-
.	.	.	1F	.	-tu(m)	.	4F/	.	.	.	.	.
.	.	.	.	.	.	.	4G/	-tum	.	.	.	.
2AA/	-tu(m)	.	.	.	.	.	2A/	.	.	2c/	-tu(m)	.
1GG	tu-	.	1G	.	tu-	.	1D	.	.	1B-	tu-	.
=21-	=21-	=21-	=21-	=21-	=21-	=21-	=21-	=21-	=21-	=21-	=21-	=21-
2GG/	-u(m)	.	1D	.	-u(m)	.	2G/	tu-	.	2B-/	-u(m)	.
2BB-/	pre-	.	.	.	.	.	2F/	-u(m)	.	2d\	pre-	.
1BB-	-cla-	.	1F	-ter-	pre-	.	2.B-\	pre-	.	1d	-cla-	.
.	.	.	.	.	.	.	8A/L	.	.	.	.	.
.	.	.	.	.	.	.	8G/J	.	.	.	.	.
=22-	=22-	=22-	=22-	=22-	=22-	=22-	=22-	=22-	=22-	=22-	=22-	=22-
2FF/	-ru(m)	.	1F	-na-	-cla-	.	2A\	-cla-	.	2c/	-ru(m)	.
2BB-/	in	.	.	.	.	.	2B-\	-ru(m)	.	2d\	in	.
!	!	!	!	!	!	!	!	!	!	!LO:SIC:v:l:s=u-:verse 1	!	!
2C/	u-	.	1C	.	-ru(m)	.	2G/	.	.	2e\	v-	.
2C/	-ni-	.	.	.	.	.	2c\	in	.	2e\	-ni-	.
=23-	=23-	=23-	=23-	=23-	=23-	=23-	=23-	=23-	=23-	=23-	=23-	=23-
1D	-o-	.	1F	.	in	.	2A/	u-	.	2f\	-o-	.
.	.	.	.	.	.	.	2A/	-ni-	.	2d\	-ne	.
!	!	!	!LO:SIC:v:l:s=u-:verse 2	!	!	!	!	!	!	!	!	!
2GG/	-ne	.	1G	.	v-	.	2B-\	-o-	.	2.g\	ſan-	.
*	*	*	*	*	*	*	*custos:c	*	*	*	*	*
2.C/	.	.	.	.	.	.	2G/	-ne	.	.	.	.
.	.	.	.	.	.	.	.	.	.	4f\	.	.
=24-	=24-	=24-	=24-	=24-	=24-	=24-	=24-	=24-	=24-	=24-	=24-	=24-
*	*	*	*custos:A	*	*	*	*	*	*	*	*	*
!	!	!	!	!	!	!	!LO:LB:g=original	!	!	!	!	!
.	.	.	1G	.	-ni-	.	2.c\	.	.	4e\	.	.
4BB-/	.	.	.	.	.	.	.	.	.	4d\	.	.
*	*	*	*	*	*	*	*	*	*	*custos:f	*	*
4AA/	ſan-	.	.	.	.	.	.	.	.	2c/	.	.
4GG/	.	.	.	.	.	.	4B-\	ſan-	.	.	.	.
!	!	!	!LO:LB:g=original	!	!	!	!	!	!	!LO:PB:g=original	!	!
2FF/	.	.	1A	.	-o-	.	4A/	.	.	2.f\	.	.
.	.	.	.	.	.	.	4G/	.	.	.	.	.
2.F\	.	.	.	.	.	.	4F/	.	.	.	.	.
.	.	.	.	.	.	.	4G/	.	.	4e\	.	.
=25-	=25-	=25-	=25-	=25-	=25-	=25-	=25-	=25-	=25-	=25-	=25-	=25-
.	.	.	1D	-le	-ne	.	2A/	.	.	4d/	.	.
*custos:D	*	*	*	*	*	*	*	*	*	*	*	*
4E\	.	.	.	.	.	.	.	.	.	4c/	.	.
!LO:LB:g=original	!	!	!	!	!	!	!	!	!	!	!	!
2D/	.	.	.	.	.	.	2F/	.	.	2B-/	.	.
1C	.	.	1E	.	ſanc-	.	1G	.	.	1c	.	.
=26-	=26-	=26-	=26-	=26-	=26-	=26-	=26-	=26-	=26-	=26-	=26-	=26-
!LO:TX:a:t=15	!	!	!LO:TX:a:t=15	!	!	!	!LO:TX:a:t=15	!	!	!LO:TX:a:t=15	!	!
0FF;l	-ctum	.	0F;l\	.	-tum	.	0A;l	-ctum	.	0c;l	-ctum	.
=27-	=27-	=27-	=27-	=27-	=27-	=27-	=27-	=27-	=27-	=27-	=27-	=27-
1F	Quo-	.	1F	et	Quo-	.	0r	.	.	1f	Quo-	.
2B-\	.	.	1G	.	-ru(m)	.	.	.	.	1d	-ru(m)	.
2B-\	-rum	.	.	.	.	.	.	.	.	.	.	.
=28-	=28-	=28-	=28-	=28-	=28-	=28-	=28-	=28-	=28-	=28-	=28-	=28-
2A\	.	.	1A	in-	de	.	1F	Quo-	.	2c/	de-	.
4G\	de	.	.	.	.	.	.	.	.	2.f\	-gre-	.
4F\	.	.	.	.	.	.	.	.	.	.	.	.
*	*	*	*lig	*	*	*	*	*	*	*	*	*
1G	gre-	.	1B-	-tro-	gre-	.	2B-\	-ru(m)	.	.	.	.
.	.	.	.	.	.	.	.	.	.	4e\	.	.
.	.	.	.	.	.	.	2G/	de	.	2e\	.	.
=29-	=29-	=29-	=29-	=29-	=29-	=29-	=29-	=29-	=29-	=29-	=29-	=29-
1F	-ge	.	1A	.	.	.	1c	gre-	.	2f\	-ge	.
.	.	.	.	.	.	.	.	.	.	1f	.	.
*	*	*	*Xlig	*	*	*	*	*	*	*	*	*
*	*	*	*lig	*	*	*	*	*	*	*	*	*
2r	.	.	1G	.	-ge	.	2B-\	-ge	.	.	.	.
2C/	An-	.	.	.	.	.	2c\	A(n)-	.	2e\	.	.
=30-	=30-	=30-	=30-	=30-	=30-	=30-	=30-	=30-	=30-	=30-	=30-	=30-
*	*	*	*	*	*	*	*custos:d	*	*	*custos:g	*	*
2AA/	-ſel-	.	1F	.	.	.	2c\	-ſel-	.	1f	An-	.
!	!	!	!	!	!	!	!LO:LB:g=original	!	!	!	!	!
2BB-/	-mus	.	.	.	.	.	1d	.	.	.	.	.
*	*	*	*Xlig	*	*	*	*	*	*	*	*	*
!	!	!	!	!	!	!	!	!	!	!LO:LB:g=original	!	!
1GG	pri-	.	1B-	-i-	an-	.	.	.	.	1g	-ſel-	.
.	.	.	.	.	.	.	4c\	-mus	.	.	.	.
.	.	.	.	.	.	.	4B-\	.	.	.	.	.
=31-	=31-	=31-	=31-	=31-	=31-	=31-	=31-	=31-	=31-	=31-	=31-	=31-
1FF	-(mus)	.	1A	.	-ſel-	.	1c	pri-	.	2c/	-mus	.
.	.	.	.	.	.	.	.	.	.	2f\	.	.
*	*ij	*	*	*	*	*	*	*	*	*	*	*
*custos:AA	*	*	*	*	*	*	*	*	*	*	*	*
1BB-	An-	.	1B-	-bit	-mus	.	2F/	.	.	1d	pri-	.
.	.	.	.	.	.	.	2F/	-mus	.	.	.	.
=32-	=32-	=32-	=32-	=32-	=32-	=32-	=32-	=32-	=32-	=32-	=32-	=32-
!LO:PB:g=original	!	!	!	!	!	!	!	!	!	!	!	!
1AA	-ſel-	.	1c	.	pri-	.	1A	co(n)-	.	2.e\	-mus	.
.	.	.	.	.	.	.	.	.	.	8d/L	.	.
.	.	.	.	.	.	.	.	.	.	8c/J	.	.
*	*	*	*custos:G	*	*	*	*	*	*	*	*	*
2BB-/	.	.	1F	.	-(m)us	.	2D/	-cep-	.	2d\	.	.
2D/	-mus	.	.	.	.	.	2.F/	-tu(m)	.	2B-/	con-	.
=33-	=33-	=33-	=33-	=33-	=33-	=33-	=33-	=33-	=33-	=33-	=33-	=33-
!	!	!	!LO:LB:g=original	!	!	!	!	!	!	!	!	!
1C	pri-	.	1G	Rex	con-	.	.	.	.	2c/	-cep-	.
.	.	.	.	.	.	.	4E/	tu-	.	.	.	.
.	.	.	.	.	.	.	2E/	-u(m)	.	2c/	-tu(m)	.
1BB-	-(mus)	.	1B-	.	-cep-	.	2F/	.	.	1d	tu-	.
*	*Xij	*	*	*	*	*	*	*	*	*	*	*
.	.	.	.	.	.	.	2D/	con-	.	.	.	.
=34-	=34-	=34-	=34-	=34-	=34-	=34-	=34-	=34-	=34-	=34-	=34-	=34-
1FF	con-	.	1A	.	-tu(m)	.	1F	-cep-	.	1c	-u(m)	.
1BB-	-cep-	.	1F	.	tu-	.	1D	-tu(m)	.	1.d	.	.
=35-	=35-	=35-	=35-	=35-	=35-	=35-	=35-	=35-	=35-	=35-	=35-	=35-
1GG	-tum	.	1G	.	-u(m)	.	1G	tu-	.	.	.	.
.	.	.	.	.	.	.	.	.	.	4c/	.	.
.	.	.	.	.	.	.	.	.	.	4B-/	.	.
1C	tu-	.	1G	glo-	po-	.	2C/	-u(m)	.	4c/	.	.
.	.	.	.	.	.	.	.	.	.	4d\	.	.
*	*	*	*	*	*	*	*	*	*	*custos:f	*	*
.	.	.	.	.	.	.	2c\	po-	.	2e\	.	.
=36-	=36-	=36-	=36-	=36-	=36-	=36-	=36-	=36-	=36-	=36-	=36-	=36-
*	*	*	*	*	*	*	*custos:B-	*	*	*	*	*
!	!	!	!	!	!	!	!	!	!	!LO:LB:g=original	!	!
1FF	-u(m)	.	1F	.	-nit	.	1A	-nit	.	2f\	.	.
.	.	.	.	.	.	.	.	.	.	2c/	po-	.
*	*	*	*lig	*	*	*	*	*	*	*	*	*
!	!	!	!	!	!	!	!LO:PB:g=original	!	!	!	!	!
1BB-	po-	.	1F	.	mun-	.	2.B-\	.	.	1d	-nit	.
.	.	.	.	.	.	.	4A/	mun-	.	.	.	.
=37-	=37-	=37-	=37-	=37-	=37-	=37-	=37-	=37-	=37-	=37-	=37-	=37-
2C/	-(n)it	.	1E	.	.	.	2G/	.	.	1c	mun-	.
2AA/	mun-	.	.	.	.	.	2c\	-diſ-	.	.	.	.
*	*	*	*Xlig	*	*	*	*	*	*	*	*	*
1BB-	-diſ-	.	1D	.	-diſ-	.	1B-	-si-	.	1d	-diſ-	.
=38-	=38-	=38-	=38-	=38-	=38-	=38-	=38-	=38-	=38-	=38-	=38-	=38-
1C	-ſi-	.	1E	-ri-	-si-	.	1G	-mu(m)	.	1c	-si-	.
*custos:FF	*	*	*	*	*	*	*	*	*	*	*	*
!LO:TX:a:t=24	!	!	!LO:TX:a:t=24	!	!	!	!LO:TX:a:t=24	!	!	!LO:TX:a:t=24	!	!
1FF;l	-mu(m)	.	1F;l	-ae	-mu(m)	.	1A;l	.	.	1c;l	-mu(m)	.
=39-	=39-	=39-	=39-	=39-	=39-	=39-	=39-	=39-	=39-	=39-	=39-	=39-
!LO:LB:g=original	!	!	!	!	!	!	!	!	!	!	!	!
1FF	Ber-	.	1F	.	Ber-	.	1A	Ber-	.	1c	Ber-	.
1BB-	-nar-	.	1D	.	-nar-	.	1B-	.	.	1d	-nar-	.
=40-	=40-	=40-	=40-	=40-	=40-	=40-	=40-	=40-	=40-	=40-	=40-	=40-
*	*	*	*custos:G	*	*	*	*	*	*	*	*	*
2FF/	-dus	.	1F	.	-dus	.	2A/	-nar-	.	2c/	-dus	.
2FF/	de-	.	.	.	.	.	2c\	-dus	.	2f\	de-	.
!	!	!	!LO:LB:g=original	!	!	!	!	!	!	!	!	!
1C	-ni-	.	1G	.	de-	.	1c	de-	.	1e	-ni-	.
=41-	=41-	=41-	=41-	=41-	=41-	=41-	=41-	=41-	=41-	=41-	=41-	=41-
1GG	-q(ue)	.	1B-	.	-ni-	.	2B-/	.	.	2d\	-q(ue)	.
.	.	.	.	.	.	.	2G/	-ni-	.	2d\	per-	.
*	*	*	*	*	*	*	*	*	*	*custos:f	*	*
2r	.	.	1A,	.	-q(ue)	.	1F	-q(ue)	.	1f	-lu-	.
2D/	per-	.	.	.	.	.	.	.	.	.	.	.
=42-	=42-	=42-	=42-	=42-	=42-	=42-	=42-	=42-	=42-	=42-	=42-	=42-
!	!	!	!	!	!	!	!	!	!	!LO:LB:g=original	!	!
1F	-luſ-	.	1A	.	per-	.	4D/	per-	.	1f	-ſtran-	.
.	.	.	.	.	.	.	4E/	-lu-	.	.	.	.
.	.	.	.	.	.	.	4F/	.	.	.	.	.
*	*	*	*	*	*	*	*custos:A	*	*	*	*	*
.	.	.	.	.	.	.	4G/	.	.	.	.	.
!	!	!	!	!	!	!	!LO:LB:g=original	!	!	!	!	!
1F	-tran-	.	1c	.	-luſ-	.	2A/	.	.	2c/	.	.
.	.	.	.	.	.	.	2F/	-ſtra(n)-	.	4A/	-do	.
.	.	.	.	.	.	.	.	.	.	4B-/	in-	.
=43-	=43-	=43-	=43-	=43-	=43-	=43-	=43-	=43-	=43-	=43-	=43-	=43-
1C	-do	.	1c	.	-tran-	.	1G	-do	.	4c/	.	.
.	.	.	.	.	.	.	.	.	.	4d\	.	.
.	.	.	.	.	.	.	.	.	.	2e\	.	.
1D	in-	.	1A	.	-do	.	4F/	in-	.	1f	.	.
.	.	.	.	.	.	.	4G/	.	.	.	.	.
.	.	.	.	.	.	.	4A/	.	.	.	.	.
.	.	.	.	.	.	.	4F/	.	.	.	.	.
=44-	=44-	=44-	=44-	=44-	=44-	=44-	=44-	=44-	=44-	=44-	=44-	=44-
1BB-	-ti-	.	1B-	.	in-	.	4G/	.	.	1d	-ti-	.
.	.	.	.	.	.	.	4F/	.	.	.	.	.
.	.	.	.	.	.	.	1F	.	.	.	.	.
1C	-me	.	1G	.	-ti-	.	.	.	.	2c/	-me	.
.	.	.	.	.	.	.	2E/	-ti-	.	2e\	om-	.
=45-	=45-	=45-	=45-	=45-	=45-	=45-	=45-	=45-	=45-	=45-	=45-	=45-
1D	om-	.	1F	.	-me	.	1F	-me	.	2d\	-ni	.
.	.	.	.	.	.	.	.	.	.	2f\	.	.
2C/	-ni	.	1G	.	om-	.	2r	.	.	2e\	pref-	.
1BB-/	p(re)-	.	.	.	.	.	2B-\	om-	.	2.d\	-fert	.
=46-	=46-	=46-	=46-	=46-	=46-	=46-	=46-	=46-	=46-	=46-	=46-	=46-
.	.	.	1F	.	-ni	.	2B-\	-ni	.	.	.	.
.	.	.	.	.	.	.	.	.	.	4c/	.	.
2C/	-fe(r)t	.	.	.	.	.	1A	.	.	1c	lau-	.
*custos:C	*	*	*	*	*	*	*	*	*	*	*	*
*	*	*	*lig	*	*	*	*	*	*	*	*	*
1D	lau-	.	1F	.	pre-	.	.	.	.	.	.	.
.	.	.	.	.	.	.	4G/	pre-	.	2B-/	.	.
.	.	.	.	.	.	.	4F/	.	.	.	.	.
=47-	=47-	=47-	=47-	=47-	=47-	=47-	=47-	=47-	=47-	=47-	=47-	=47-
*	*	*	*	*	*	*	*	*	*	*custos:d	*	*
!LO:LB:g=original	!	!	!	!	!	!	!	!	!	!	!	!
1C	.	.	1E	.	.	.	2G/	-fer	.	1c	.	.
.	.	.	.	.	.	.	2A/	.	.	.	.	.
*lig	*	*	*Xlig	*	*	*	*	*	*	*lig	*	*
!	!	!	!	!	!	!	!	!	!	!LO:PB:g=original	!	!
1BB-	.	.	1D	.	-fert	.	2.B-/	lau-	.	1d	.	.
*	*	*	*	*	*	*	*custos:G	*	*	*	*	*
.	.	.	.	.	.	.	4A/	.	.	.	.	.
=48-	=48-	=48-	=48-	=48-	=48-	=48-	=48-	=48-	=48-	=48-	=48-	=48-
!	!	!	!	!	!	!	!LO:LB:g=original	!	!	!	!	!
1C	.	.	1E	.	lau-	.	1G	.	.	1c	.	.
*Xlig	*	*	*	*	*	*	*	*	*	*Xlig	*	*
*	*	*	*custos:F	*	*	*	*	*	*	*	*	*
!LO:TX:a:t=20	!	!	!LO:TX:a:t=20	!	!	!	!LO:TX:a:t=20	!	!	!LO:TX:a:t=20	!	!
1FF;l	-de	.	1F;l\	.	-de	.	1A;l	-de	.	1c;l	-de	.
=49-	=49-	=49-	=49-	=49-	=49-	=49-	=49-	=49-	=49-	=49-	=49-	=49-
!	!	!	!LO:PB:g=original	!	!	!	!	!	!	!	!	!
0r	.	.	1F	.	Au-	.	0r	.	.	1r	.	.
.	.	.	1A	.	-guſ-	.	.	.	.	1F	Au-	.
=50-	=50-	=50-	=50-	=50-	=50-	=50-	=50-	=50-	=50-	=50-	=50-	=50-
1r	.	.	1c	.	-ti-	.	1F	Au-	.	2.A/	-gu-	.
.	.	.	.	.	.	.	.	.	.	4B-/	.	.
2r	.	.	1c	.	-nus	.	1A	-guſ-	.	4c/	.	.
.	.	.	.	.	.	.	.	.	.	4F/	.	.
1FF/	Au-	.	.	.	.	.	.	.	.	1f\	.	.
=51-	=51-	=51-	=51-	=51-	=51-	=51-	=51-	=51-	=51-	=51-	=51-	=51-
.	.	.	1A	.	re-	.	2c\	-ti-	.	.	.	.
1AA	-guſ-	.	.	.	.	.	2c\	-nus	.	4e\	-ſti-	.
.	.	.	.	.	.	.	.	.	.	4d\	-nus	.
!	!	!	!LO:SIC:v:l:s=-ve-:verse 2	!	!	!	!	!	!	!	!	!
.	.	.	1c	.	-ue-	.	2A/	.	.	2e\	.	.
1C/	-ti-	.	.	.	.	.	4G/	.	.	2c/	ſic	.
.	.	.	.	.	.	.	4F/	re-	.	.	.	.
=52-	=52-	=52-	=52-	=52-	=52-	=52-	=52-	=52-	=52-	=52-	=52-	=52-
!	!	!	!	!	!	!	!LO:SIC:v:l:s=-ve-:verse 1	!	!	!	!	!
.	.	.	1c	.	-ra	.	1G	-ue-	.	1e	in-	.
2C/	-nus	.	.	.	.	.	.	.	.	.	.	.
2BB-/	re-	.	1d	.	ſic	.	2B-\	-ra	.	1f	-quit	.
!LO:SIC:v:l:s=-ve-:verse 1	!	!	!	!	!	!	!	!	!	!	!	!
1D\	-ue-	.	.	.	.	.	2A/	ſic	.	.	.	.
=53-	=53-	=53-	=53-	=53-	=53-	=53-	=53-	=53-	=53-	=53-	=53-	=53-
*	*	*	*lig	*	*	*	*	*	*	*	*	*
.	.	.	1A	.	in-	.	2D/	in-	.	2f\	re-	.
*	*	*	*	*	*	*	*	*	*	*custos:d	*	*
!	!	!	!	!	!	!	!	!	!	!LO:SIC:v:l:s=-ve-:verse 1	!	!
2C/	-ra	.	.	.	.	.	2E/	.	.	2e\	-ue-	.
!	!	!	!	!	!	!	!	!	!	!LO:LB:g=original	!	!
1BB-	ſic	.	1B-	.	.	.	2F/	.	.	1d	.	.
.	.	.	.	.	.	.	2G/	.	.	.	.	.
*	*	*	*Xlig	*	*	*	*	*	*	*	*	*
=54-	=54-	=54-	=54-	=54-	=54-	=54-	=54-	=54-	=54-	=54-	=54-	=54-
1FF	in-	.	1c	.	-quit,	.	2.A\	-quit	.	2c/	-ra	.
!	!	!	!	!	!	!	!	!	!	!LO:TX:t=P:problem=kreska pseudotaktowa	!	!
.	.	.	.	.	.	.	.	.	.	2f\	.	.
*	*	*	*	*	*	*	*custos:c	*	*	*	*	*
.	.	.	.	.	.	.	4B-\	.	.	.	.	.
!	!	!	!	!	!	!	!LO:LB:g=original	!	!	!	!	!
2FF/	-q(ui)t	.	1F	.	cum	.	2c\	.	.	2f\	cum	.
2F\	cu(m)	.	.	.	.	.	2c\	cum	.	1f\	de	.
=55-	=55-	=55-	=55-	=55-	=55-	=55-	=55-	=55-	=55-	=55-	=55-	=55-
*custos:F	*	*	*	*	*	*	*	*	*	*	*	*
2F\	de	.	1A	.	de	.	2.c\	de	.	.	.	.
!LO:LB:g=original	!	!	!	!	!	!	!	!	!	!	!	!
!LO:SIC:v:l:s=pec-:verse 1	!	!	!	!	!	!	!	!	!	!	!	!
1F	pe-	.	.	.	.	.	.	.	.	4e\	pec-	.
.	.	.	.	.	.	.	4B-\	.	.	4d\	.	.
.	.	.	1c	.	p(e)c-	.	2A/	pec-	.	2c/	-ca-	.
4E\	.	.	.	.	.	.	4G/	-ca-	.	1f\	-tis	.
4D\	.	.	.	.	.	.	4F/	.	.	.	.	.
=56-	=56-	=56-	=56-	=56-	=56-	=56-	=56-	=56-	=56-	=56-	=56-	=56-
2C/	-ca-	.	1c	.	-c(a)-	.	2G/	.	.	.	.	.
2C/	-tis	.	.	.	.	.	2G/	-tis	.	2e\	di-	.
2FF/	.	.	1A	.	-tis	.	1F	di-	.	2c/	-ci	.
2.FF/	di-	.	.	.	.	.	.	.	.	1f\	.	.
=57-	=57-	=57-	=57-	=57-	=57-	=57-	=57-	=57-	=57-	=57-	=57-	=57-
*	*	*	*custos:c	*	*	*	*	*	*	*	*	*
.	.	.	1c	.	di-	.	1A	-ci	.	.	.	.
4GG/	.	.	.	.	.	.	.	.	.	.	.	.
4AA/	.	.	.	.	.	.	.	.	.	4e\	con-	.
4BB-/	.	.	.	.	.	.	.	.	.	4d\	.	.
!	!	!	!LO:LB:g=original	!	!	!	!	!	!	!	!	!
2C/	.	.	1c	.	-ci	.	2G/	.	.	2e\	.	.
2AA/	-ci	.	.	.	.	.	2A/	.	.	2c/	.	.
=58-	=58-	=58-	=58-	=58-	=58-	=58-	=58-	=58-	=58-	=58-	=58-	=58-
2.BB-/	con-	.	1d	.	con-	.	2.D/	con-	.	1.f	.	.
4C/	.	.	.	.	.	.	4E/	.	.	.	.	.
*	*	*	*lig	*	*	*	*	*	*	*	*	*
2D/	.	.	1A	.	-tin-	.	4F/	.	.	.	.	.
.	.	.	.	.	.	.	4G/	.	.	.	.	.
2C/	.	.	.	.	.	.	1A\	.	.	2e\	.	.
=59-	=59-	=59-	=59-	=59-	=59-	=59-	=59-	=59-	=59-	=59-	=59-	=59-
1BB-	-tin-	.	1B-	.	.	.	.	.	.	1d	-tin-	.
.	.	.	.	.	.	.	2G/	-tin-	.	.	.	.
*	*	*	*Xlig	*	*	*	*	*	*	*	*	*
*	*	*	*	*	*	*	*custos:E	*	*	*custos:G	*	*
2AA/	-git	.	1c	.	-git,	.	2A/	-git	.	2c/	-git	.
!	!	!	!	!	!	!	!LO:PB:g=original	!	!	!LO:LB:g=original	!	!
2C/	no(n)	.	.	.	.	.	2E/	non	.	1G/	non	.
=60-	=60-	=60-	=60-	=60-	=60-	=60-	=60-	=60-	=60-	=60-	=60-	=60-
*custos:AA	*	*	*	*	*	*	*	*	*	*	*	*
2C/	que-	.	1c	.	no(n)	.	1E	que-	.	.	.	.
!LO:PB:g=original	!	!	!	!	!	!	!	!	!	!	!	!
2AA/	-ri	.	.	.	.	.	.	.	.	2A/	que-	.
2C/	no(n)	.	1c	.	que-	.	1E	-ri	.	2G/	-ri	.
2C/	fa-	.	.	.	.	.	.	.	.	2G/	no(n)	.
=61-	=61-	=61-	=61-	=61-	=61-	=61-	=61-	=61-	=61-	=61-	=61-	=61-
1FF	-ri	.	1A	.	-ri,	.	1F	no(n)	.	1c	fa-	.
2r	.	.	1c	.	no(n)	.	1F	fa-	.	1F	-ri,	.
1F\	an	.	.	.	.	.	.	.	.	.	.	.
=62-	=62-	=62-	=62-	=62-	=62-	=62-	=62-	=62-	=62-	=62-	=62-	=62-
.	.	.	1c	.	fa-	.	1C	-ri	.	2r	.	.
2E\	.	.	.	.	.	.	.	.	.	2G/	an	.
2D/	lap-	.	1F	.	-ri,	.	2r	.	.	1A	lap-	.
2D/	-ſum	.	.	.	.	.	2F/	an	.	.	.	.
=63-	=63-	=63-	=63-	=63-	=63-	=63-	=63-	=63-	=63-	=63-	=63-	=63-
1GG	.	.	1G	.	an	.	2.D/	lap-	.	2B-/	-ſum	.
.	.	.	.	.	.	.	.	.	.	2G/	fe-	.
.	.	.	.	.	.	.	4E/	.	.	.	.	.
!LO:TX:t=P:problem=kreska pseudotaktowa	!	!	!	!	!	!	!	!	!	!	!	!
1D	fe-	.	1A	.	lap-	.	2F/	-ſum	.	2F/	-cit	.
.	.	.	.	.	.	.	2D/	.	.	2f\	an	.
=64	=64-	=64-	=64-	=64-	=64-	=64-	=64-	=64-	=64-	=64-	=64-	=64-
*	*	*	*	*	*	*	*lig	*	*	*	*	*
2BB-/	-cit	.	1B-	.	-ſu(m)	.	1d	fe-	.	2d\	le-	.
*	*ij	*	*	*	*	*	*	*	*	*	*	*
2BB-/	lap-	.	.	.	.	.	.	.	.	1f	-ge(m)	.
1C	-ſum	.	1G	.	fe-	.	1c	.	.	.	.	.
!	!	!	!	!	!	!	!	!	!	!LO:SIC:v:l:s=vi-:verse 1	!	!
.	.	.	.	.	.	.	.	.	.	2e\	ui-	.
*	*	*	*	*	*	*	*Xlig	*	*	*	*	*
=65-	=65-	=65-	=65-	=65-	=65-	=65-	=65-	=65-	=65-	=65-	=65-	=65-
*	*	*	*custos:G	*	*	*	*	*	*	*	*	*
2FF/	fe-	.	1F	.	-cit	.	2A/	-cit	.	2c/	-o-	.
2BB-/	-cit	.	.	.	.	.	1.B-	an	.	2d/	-la-	.
*	*Xij	*	*	*	*	*	*	*	*	*	*	*
!LO:TX:t=P:problem=pomyłka rytmiczna oznaczona przez dorysowanie drugiej caudy	!	!	!	!	!	!	!	!	!	!	!	!
!	!	!	!LO:LB:g=original	!	!	!	!	!	!	!LO:SIC:v:l:s=vit-:verse 1	!	!
1GG	an	.	1G	.	an	.	.	.	.	1d	-uit	.
=66-	=66-	=66-	=66-	=66-	=66-	=66-	=66-	=66-	=66-	=66-	=66-	=66-
*	*	*	*	*	*	*	*	*	*	*custos:c	*	*
1C	le-	.	1G	.	le-	.	2G/	le-	.	2c/	a(n)	.
!	!	!	!	!	!	!	!	!	!	!LO:LB:g=original	!	!
.	.	.	.	.	.	.	1c	-ge(m)	.	2c/	le-	.
2FF/	-gem	.	1F	.	-ge(m)	.	.	.	.	2A/	-gem	.
!LO:SIC:v:l:s=vi-:verse 1	!	!	!	!	!	!	!LO:SIC:v:l:s=vi-:verse 1	!	!	!	!	!
!	!	!	!	!	!	!	!	!	!	!LO:SIC:v:l:s=vi-:verse 1	!	!
1BB-/	ui-	.	.	.	.	.	2.F/	ui-	.	2.d\	ui-	.
=67-	=67-	=67-	=67-	=67-	=67-	=67-	=67-	=67-	=67-	=67-	=67-	=67-
!	!	!	!LO:SIC:v:l:s=vi-:verse 2	!	!	!	!	!	!	!	!	!
.	.	.	1F	.	ui-	.	.	.	.	.	.	.
*	*	*	*	*	*	*	*custos:A	*	*	*	*	*
.	.	.	.	.	.	.	4G/	-o-	.	4c\	-o-	.
*custos:D	*	*	*	*	*	*	*	*	*	*	*	*
!	!	!	!	!	!	!	!LO:LB:g=original	!	!	!	!	!
2AA/	-o-	.	.	.	.	.	2A/	.	.	1c	-la-	.
*lig	*	*	*	*	*	*	*	*	*	*	*	*
!LO:LB:g=original	!	!	!	!	!	!	!	!	!	!	!	!
1D	-la-	.	1D	.	-o-	.	1F	.	.	.	.	.
.	.	.	.	.	.	.	.	.	.	2B-/	.	.
=68-	=68-	=68-	=68-	=68-	=68-	=68-	=68-	=68-	=68-	=68-	=68-	=68-
!	!	!	!	!	!	!	!	!	!	!LO:TX:b:t=2	!	!
!	!	!	!	!	!	!	!	!	!	!LO:TX:a:t=39	!	!
!	!	!	!	!	!	!	!	!	!	!LO:SIC:v:l:s=vit-:verse 1	!	!
1C	.	.	1E	.	-la-	.	1G	-la-	.	0c;l	-uit	.
*Xlig	*	*	*	*	*	*	*	*	*	*	*	*
!LO:TX:a:t=40	!	!	!LO:TX:a:t=40	!	!	!	!LO:TX:a:t=40	!	!	!	!	!
!LO:SIC:v:l:s=vit-:verse 1	!	!	!LO:SIC:v:l:s=vit-:verse 2	!	!	!	!LO:SIC:v:l:s=vit-:verse 1	!	!	!	!	!
1FF;l	-uit	.	1F;l\	.	-uit	.	1A;l	-uit	.	.	.	.
=69-	=69-	=69-	=69-	=69-	=69-	=69-	=69-	=69-	=69-	=69-	=69-	=69-
2.F\	Hec	.	1F	Quis	Hec	.	2.A/	Hec	.	1c	Hec	.
4E\	.	.	.	.	.	.	4G/	.	.	.	.	.
2D/	.	.	1A	.	ſu(n)t	.	2F/	.	.	1d	.	.
4C/	.	.	.	.	.	.	4E/	ſunt	.	.	.	.
4BB-/	.	.	.	.	.	.	4D/	.	.	.	.	.
=70-	=70-	=70-	=70-	=70-	=70-	=70-	=70-	=70-	=70-	=70-	=70-	=70-
2AA/	.	.	1c	a-	e-	.	1A	e-	.	2e\	ſunt	.
2FF/	ſu(n)t	.	.	.	.	.	.	.	.	1f	e-	.
2C/	e-	.	1c	-a-	-lo-	.	2G/	-lo-	.	.	.	.
2C/	-lo-	.	.	.	.	.	2G/	-qui-	.	2e\	-lo-	.
=71-	=71-	=71-	=71-	=71-	=71-	=71-	=71-	=71-	=71-	=71-	=71-	=71-
2D/	-qui-	.	1A	.	-qui-	.	2F/	-a	.	2d\	-qui-	.
1F	-a	.	.	.	.	.	1A	que	.	4c/	-a	.
.	.	.	.	.	.	.	.	.	.	4B-/	.	.
*	*	*	*custos:d	*	*	*	*	*	*	*	*	*
.	.	.	1c	-ſcen-	-a	.	.	.	.	2A/	que	.
*	*	*	*	*	*	*	*	*	*	*custos:B-	*	*
2E\	que	.	.	.	.	.	2G/	ti-	.	1c\	ti-	.
=72-	=72-	=72-	=72-	=72-	=72-	=72-	=72-	=72-	=72-	=72-	=72-	=72-
!	!	!	!LO:LB:g=original	!	!	!	!	!	!	!	!	!
1D	ti-	.	1d	.	que	.	1F	-bi	.	.	.	.
!	!	!	!	!	!	!	!	!	!	!LO:PB:g=original	!	!
.	.	.	.	.	.	.	.	.	.	2B-/	-bi	.
*	*	*	*	*	*	*	*custos:A	*	*	*	*	*
1C	-bi	.	1e	.	ti-	.	2G/	pla-	.	1c	pla-	.
!	!	!	!	!	!	!	!LO:LB:g=original	!	!	!	!	!
.	.	.	.	.	.	.	1A\	.	.	.	.	.
=73-	=73-	=73-	=73-	=73-	=73-	=73-	=73-	=73-	=73-	=73-	=73-	=73-
*custos:GG	*	*	*	*	*	*	*	*	*	*	*	*
1D	pla-	.	1f	.	-bi	.	.	.	.	1A	.	.
.	.	.	.	.	.	.	4G/	.	.	.	.	.
.	.	.	.	.	.	.	4F/	.	.	.	.	.
!LO:LB:g=original	!	!	!	!	!	!	!	!	!	!	!	!
2GG/	-cent	.	1d	-dt	pla-	.	2G/	.	.	1B-	-cent	.
2D\	.	.	.	.	.	.	2F/	-cent	.	.	.	.
=74-	=74-	=74-	=74-	=74-	=74-	=74-	=74-	=74-	=74-	=74-	=74-	=74-
2.F\	o	.	1c	in	-ce(n)t	.	2.A/	o	.	2A/	o	.
.	.	.	.	.	.	.	.	.	.	2c/	De-	.
4E\	.	.	.	.	.	.	4G/	.	.	.	.	.
2D/	De-	.	1d	mon-	o	.	2F/	.	.	2B-/	-i	.
2C/	.	.	.	.	.	.	2E/	.	.	1A/	pa	.
=75-	=75-	=75-	=75-	=75-	=75-	=75-	=75-	=75-	=75-	=75-	=75-	=75-
1BB-	.	.	1d	-tem	De-	.	1D	.	.	.	.	.
.	.	.	.	.	.	.	.	.	.	2G/	tris	.
1AA	-i	.	1c	.	-i	.	2E/	de-	.	1A	.	.
.	.	.	.	.	.	.	2A/	-i	.	.	.	.
=76-	=76-	=76-	=76-	=76-	=76-	=76-	=76-	=76-	=76-	=76-	=76-	=76-
4BB-/	pa-	.	1B-	.	pa-	.	2.F/	pa-	.	1d	fi-	.
4C/	.	.	.	.	.	.	.	.	.	.	.	.
4D/	.	.	.	.	.	.	.	.	.	.	.	.
4E\	.	.	.	.	.	.	4G/	-tris	.	.	.	.
1F	.	.	1A	Do-	-tris	.	4A/	.	.	2c/	-li-	.
.	.	.	.	.	.	.	4B-\	.	.	.	.	.
.	.	.	.	.	.	.	2c\	.	.	1f\	-a	.
=77-	=77-	=77-	=77-	=77-	=77-	=77-	=77-	=77-	=77-	=77-	=77-	=77-
2D/	-tris	.	1B-	.	fi-	.	1d	fi-	.	.	.	.
*	*	*	*	*	*	*	*	*	*	*	*ij	*
2D/	fi-	.	.	.	.	.	.	.	.	4e\	fi-	.
.	.	.	.	.	.	.	.	.	.	4d\	.	.
1C	-li-	.	1c	-mi-	-li-	.	1G	-li-	.	1e	-li-	.
=78-	=78-	=78-	=78-	=78-	=78-	=78-	=78-	=78-	=78-	=78-	=78-	=78-
*	*	*	*custos:F	*	*	*	*custos:c	*	*	*custos:f	*	*
!LO:TX:a:t=19	!	!	!LO:TX:a:t=19	!	!	!	!LO:TX:a:t=19	!	!	!LO:TX:a:t=19	!	!
0C;l\	-a	.	0c;<l	-ni	-a,	.	0G;l\	-a	.	0e;<l	-a	.
*	*	*	*	*	*	*	*	*	*	*	*Xij	*
=79-	=79-	=79-	=79-	=79-	=79-	=79-	=79-	=79-	=79-	=79-	=79-	=79-
!	!	!	!LO:PB:g=original	!	!	!	!LO:LB:g=original	!	!	!LO:LB:g=original	!	!
1F	A	.	1F	Aut	A	.	1c	A	.	0f	A	.
*custos:D	*	*	*	*	*	*	*	*	*	*	*	*
2D/	ſco-	.	1A	quis	ſco-	.	2.d\	ſco-	.	.	.	.
!LO:LB:g=original	!	!	!	!	!	!	!	!	!	!	!	!
2D/	-to	.	.	.	.	.	.	.	.	.	.	.
.	.	.	.	.	.	.	4c\	.	.	.	.	.
=80-	=80-	=80-	=80-	=80-	=80-	=80-	=80-	=80-	=80-	=80-	=80-	=80-
2G\	Gui-	.	1B-	.	-to	.	4B-\	.	.	2d\	ſco-	.
.	.	.	.	.	.	.	4A\	.	.	.	.	.
2G\	-do-	.	.	.	.	.	1G	-to	.	2d\	-to	.
0C	-ne,	.	1c	ſta-	Gui-	.	.	.	.	2g\	.	.
.	.	.	.	.	.	.	2G/	Gui-	.	2g\	Gui-	.
=81-	=81-	=81-	=81-	=81-	=81-	=81-	=81-	=81-	=81-	=81-	=81-	=81-
.	.	.	1c	.	-do-	.	2A/	.	.	2c/	-do-	.
.	.	.	.	.	.	.	2G/	-do-	.	2e\	-ne	.
1D	et	.	1F	-bit	-ne	.	2B-\	-ne	.	1f	et	.
.	.	.	.	.	.	.	2A/	et	.	.	.	.
=82-	=82-	=82-	=82-	=82-	=82-	=82-	=82-	=82-	=82-	=82-	=82-	=82-
*lig	*	*	*	*	*	*	*	*	*	*	*	*
1E	.	.	1G	in	et	.	2G/	Ri-	.	2.e\	Ri-	.
.	.	.	.	.	.	.	2.c\	-char-	.	.	.	.
.	.	.	.	.	.	.	.	.	.	4d\	.	.
*	*	*	*lig	*	*	*	*	*	*	*	*	*
1F	.	.	1A	.	Ri-	.	.	.	.	4c/	-char-	.
.	.	.	.	.	.	.	4B-\	.	.	4B-/	.	.
.	.	.	.	.	.	.	4A\	.	.	2c/	.	.
.	.	.	.	.	.	.	4G/	-do	.	.	.	.
*Xlig	*	*	*	*	*	*	*	*	*	*	*	*
=83-	=83-	=83-	=83-	=83-	=83-	=83-	=83-	=83-	=83-	=83-	=83-	=83-
1D	Ri-	.	1B-	.	.	.	2F/	.	.	2d\	.	.
*	*	*	*	*	*	*	*custos:c	*	*	*	*	*
.	.	.	.	.	.	.	2F/	aſ-	.	1f	.	.
*	*	*	*Xlig	*	*	*	*	*	*	*	*	*
!	!	!	!	!	!	!	!LO:PB:g=original	!	!	!	!	!
2C/	-char-	.	1G	lo-	-char-	.	2.c\	-ſe-	.	.	.	.
2C/	-do	.	.	.	.	.	.	.	.	2e\	.	.
.	.	.	.	.	.	.	4B-\	.	.	.	.	.
=84-	=84-	=84-	=84-	=84-	=84-	=84-	=84-	=84-	=84-	=84-	=84-	=84-
1D	a-	.	1F	.	-do	.	4A/	.	.	1f	-do	.
.	.	.	.	.	.	.	4G/	.	.	.	.	.
.	.	.	.	.	.	.	1F	.	.	.	.	.
1C	-ſe-	.	1G	-co	a-	.	.	.	.	2r	.	.
.	.	.	.	.	.	.	2E/	-ri-	.	2c/	aſ-	.
=85-	=85-	=85-	=85-	=85-	=85-	=85-	=85-	=85-	=85-	=85-	=85-	=85-
*	*	*	*	*	*	*	*	*	*	*custos:c	*	*
4BB-/	-ri-	.	1B-	.	-ſe-	.	2.F/	-tur	.	1d	-se-	.
4C/	-tur	.	.	.	.	.	.	.	.	.	.	.
4D/	.	.	.	.	.	.	.	.	.	.	.	.
4E/	.	.	.	.	.	.	4G/	.	.	.	.	.
!	!	!	!	!	!	!	!	!	!	!LO:LB:g=original	!	!
2F\	.	.	1F	ſan-	-ri-	.	2A/	.	.	2c/	-ri-	.
2D/	.	.	.	.	.	.	1F/	id	.	2B-/	-tur	.
=86-	=86-	=86-	=86-	=86-	=86-	=86-	=86-	=86-	=86-	=86-	=86-	=86-
1C	.	.	1G	.	-tur	.	.	.	.	2.c/	id	.
.	.	.	.	.	.	.	2E/	ra-	.	.	.	.
.	.	.	.	.	.	.	.	.	.	4B-/	.	.
*custos:BB-	*	*	*custos:D	*	*	*	*	*	*	*	*	*
2D/	id	.	1F	-cto	id	.	2F/	-ti-	.	2A/	.	.
!LO:PB:g=original	!	!	!	!	!	!	!	!	!	!	!	!
2.BB-/	ra-	.	.	.	.	.	2.B-\	-o-	.	1d\	ra-	.
=87-	=87-	=87-	=87-	=87-	=87-	=87-	=87-	=87-	=87-	=87-	=87-	=87-
!	!	!	!LO:LB:g=original	!	!	!	!	!	!	!	!	!
.	.	.	1D	e-	ra-	.	.	.	.	.	.	.
4C/	.	.	.	.	.	.	4A/	.	.	.	.	.
2D/	-ti-	.	.	.	.	.	2F/	.	.	2B-/	-ci-	.
1C	-o-	.	1E	.	-ci-	.	1G	.	.	1c	-o-	.
=88-	=88-	=88-	=88-	=88-	=88-	=88-	=88-	=88-	=88-	=88-	=88-	=88-
*	*	*	*	*	*	*	*custos:G	*	*	*	*	*
!LO:TX:b:t=2	!	!	!	!	!	!	!LO:TX:b:t=2	!	!	!LO:TX:a:t=20	!	!
!LO:TX:a:t=19	!	!	!	!	!	!	!LO:TX:a:t=20	!	!	!LO:TX:b:t=2	!	!
0FF;l	-ne	.	1F	.	-o-	.	0A;l	-ne	.	0c;l	-ne	.
!	!	!	!LO:TX:a:t=20	!	!	!	!	!	!	!	!	!
.	.	.	1F;l\	-iuſ	-ne	.	.	.	.	.	.	.
=89-	=89-	=89-	=89-	=89-	=89-	=89-	=89-	=89-	=89-	=89-	=89-	=89-
!LO:TX:b:t=3	!	!	!	!	!	!	!	!	!	!	!	!
!	!	!	!	!	!	!	!LO:LB:g=original	!	!	!	!	!
2.C/	Per	.	1c	In-	Per	.	1.G	Per	.	4c/	Per	.
.	.	.	.	.	.	.	.	.	.	4d/	.	.
.	.	.	.	.	.	.	.	.	.	4e\	.	.
4D/	.	.	.	.	.	.	.	.	.	4f\	.	.
2E\	.	.	1c	-no-	de-	.	.	.	.	2g\	.	.
2F\	.	.	.	.	.	.	2A/	.	.	1f\	de-	.
=90-	=90-	=90-	=90-	=90-	=90-	=90-	=90-	=90-	=90-	=90-	=90-	=90-
1G	de-	.	1B-	-cens	-mo-	.	2.B-\	de-	.	.	.	.
.	.	.	.	.	.	.	.	.	.	2e\	-mo-	.
.	.	.	.	.	.	.	4c\	-mo-	.	.	.	.
1F	-mo-	.	1A	.	-nes	.	2d\	-nes	.	1f	-(n)es	.
.	.	.	.	.	.	.	2c\	.	.	.	.	.
=91-	=91-	=91-	=91-	=91-	=91-	=91-	=91-	=91-	=91-	=91-	=91-	=91-
*	*	*	*	*	*	*	*	*	*	*custos:e	*	*
1G	-nes	.	1B-	.	ia(m)	.	2B-\	.	.	1d	ia(m)	.
.	.	.	.	.	.	.	1G	iam	.	.	.	.
!	!	!	!	!	!	!	!	!	!	!LO:LB:g=original	!	!
1C	ia(m)	.	1c	.	ſub-	.	.	.	.	1e	ſub-	.
.	.	.	.	.	.	.	1A\	.	.	.	.	.
=92-	=92-	=92-	=92-	=92-	=92-	=92-	=92-	=92-	=92-	=92-	=92-	=92-
*	*	*	*lig	*	*	*	*	*	*	*	*	*
2D/	.	.	1A	ma-	-mer-	.	.	.	.	2f\	.	.
2F\	ſub-	.	.	.	.	.	4G/	ſub-	.	1d	-mer-	.
.	.	.	.	.	.	.	4F/	.	.	.	.	.
1E	-mer-	.	1G	.	.	.	1G	-mer-	.	.	.	.
.	.	.	.	.	.	.	.	.	.	2c\	.	.
*	*	*	*Xlig	*	*	*	*	*	*	*	*	*
=93-	=93-	=93-	=93-	=93-	=93-	=93-	=93-	=93-	=93-	=93-	=93-	=93-
*custos:D	*	*	*	*	*	*	*	*	*	*	*	*
2D/	-ſu(m)	.	1F	.	-ſu(m)	.	2A/	-ſu(m)	.	2d\	-ſum	.
!LO:LB:g=original	!	!	!	!	!	!	!	!	!	!	!	!
2D/	re-	.	.	.	.	.	2A/	re-	.	2f\	.	.
*lig	*	*	*	*	*	*	*	*	*	*	*	*
1E	-du-	.	1G	-ni-	re-	.	2G/	-du-	.	2.e\	.	.
.	.	.	.	.	.	.	2.c\	-xi-	.	.	.	.
.	.	.	.	.	.	.	.	.	.	4d\	.	.
=94-	=94-	=94-	=94-	=94-	=94-	=94-	=94-	=94-	=94-	=94-	=94-	=94-
*	*	*	*lig	*	*	*	*	*	*	*	*	*
1F	.	.	1A	-buſ	-du-	.	.	.	.	1c	.	.
.	.	.	.	.	.	.	4B-\	.	.	.	.	.
.	.	.	.	.	.	.	4A/	.	.	.	.	.
.	.	.	.	.	.	.	4G/	.	.	.	.	.
*Xlig	*	*	*	*	*	*	*	*	*	*	*	*
*	*	*	*custos:G	*	*	*	*custos:A	*	*	*	*	*
1D	-xi-	.	1B-	.	.	.	1F	.	.	2r	.	.
.	.	.	.	.	.	.	.	.	.	2d\	re-	.
*	*	*	*Xlig	*	*	*	*	*	*	*	*	*
=95-	=95-	=95-	=95-	=95-	=95-	=95-	=95-	=95-	=95-	=95-	=95-	=95-
*	*	*	*	*	*	*	*	*	*	*lig	*	*
!	!	!	!LO:LB:g=original	!	!	!	!LO:LB:g=original	!	!	!	!	!
1C	-ſti	.	1G	et	-xi-	.	2.c\	.	.	1e	-du-	.
.	.	.	.	.	.	.	4B-\	-ſti	.	.	.	.
1D	tu-	.	1F	.	-ſti	.	1A	tu-	.	1f	.	.
*	*	*	*	*	*	*	*	*	*	*Xlig	*	*
=96-	=96-	=96-	=96-	=96-	=96-	=96-	=96-	=96-	=96-	=96-	=96-	=96-
2GG/	-um	.	1G	mun-	tu-	.	2B-\	-um	.	2d\	-xi-	.
2C/	cli-	.	.	.	.	.	2c\	.	.	2c\	-ſti	.
1D	-mo-	.	1F	.	-u(m)	.	1A	cli-	.	2.f\	.	.
.	.	.	.	.	.	.	.	.	.	4e\	tu-	.
=97-	=97-	=97-	=97-	=97-	=97-	=97-	=97-	=97-	=97-	=97-	=97-	=97-
*	*	*	*lig	*	*	*	*	*	*	*	*	*
1BB-	-ni-	.	1F	-do	cli-	.	1B-	-mo-	.	4d\	-um	.
.	.	.	.	.	.	.	.	.	.	4c\	.	.
.	.	.	.	.	.	.	.	.	.	2.d\	.	.
1C	-u(m)	.	1E	.	.	.	2G/	-ni-	.	.	.	.
*	*	*	*	*	*	*	*	*	*	*custos:c	*	*
.	.	.	.	.	.	.	.	.	.	4c/	.	.
!	!	!	!	!	!	!	!	!	!	!LO:PB:g=original	!	!
.	.	.	.	.	.	.	1A\	-u(m)	.	1c\	.	.
*	*	*	*Xlig	*	*	*	*	*	*	*	*	*
=98-	=98-	=98-	=98-	=98-	=98-	=98-	=98-	=98-	=98-	=98-	=98-	=98-
2r	.	.	1D	cor-	-mo-	.	.	.	.	.	.	.
1F	.	.	.	.	.	.	4G/	.	.	2B-/	.	.
.	.	.	.	.	.	.	4F/	.	.	.	.	.
.	.	.	1C	.	-ni-	.	1G	.	.	2c/	um	.
2E\	cli-	.	.	.	.	.	.	.	.	2c/	cli-	.
=99-	=99-	=99-	=99-	=99-	=99-	=99-	=99-	=99-	=99-	=99-	=99-	=99-
2.D/	-mo-	.	1F	.	.	.	1A	cli-	.	1.d	-mo-	.
4C/	.	.	.	.	.	.	.	.	.	.	.	.
!	!	!	!LO:TX:b:t=2	!	!	!	!	!	!	!	!	!
!	!	!	!LO:TX:a:t=22	!	!	!	!	!	!	!	!	!
2BB-/	-ni-	.	0.F;l\	-do	-um	.	2B-/	-mo-	.	.	.	.
2FF/	.	.	.	.	.	.	2A/	-ni-	.	2c/	-ni-	.
=100-	=100-	=100-	=100-	=100-	=100-	=100-	=100-	=100-	=100-	=100-	=100-	=100-
*custos:F	*	*	*	*	*	*	*	*	*	*	*	*
!LO:TX:a:t=23	!	!	!	!	!	!	!LO:TX:a:t=23	!	!	!LO:TX:a:t=23	!	!
0FF;l	-um	.	.	.	.	.	0A;l	-u(m)	.	0c;l	-u(m)	.
=101-	=101-	=101-	=101-	=101-	=101-	=101-	=101-	=101-	=101-	=101-	=101-	=101-
!LO:LB:g=original	!	!	!	!	!	!	!	!	!	!	!	!
1r	.	.	1F	.	Hel-	.	1c	Hel-	.	0r	.	.
*	*	*	*	*	*	*	*custos:d	*	*	*	*	*
1F	Hel-	.	1D	.	-ſi-	.	1d	-ſi-	.	.	.	.
=102-	=102-	=102-	=102-	=102-	=102-	=102-	=102-	=102-	=102-	=102-	=102-	=102-
!	!	!	!	!	!	!	!LO:LB:g=original	!	!	!	!	!
2D/	.	.	1F	.	-mum-	.	2d\	-mum-	.	1f	Hel-	.
2D/	-ſi-	.	.	.	.	.	2A/	-q(ue)	.	.	.	.
2BB-/	-mum-	.	1F	.	-q(ue)	.	2.B-/	.	.	2d/	-ſi-	.
2BB-/	-q(ue)	.	.	.	.	.	.	.	.	2d/	-mu(m)-	.
.	.	.	.	.	.	.	4A/	Ab-	.	.	.	.
=103-	=103-	=103-	=103-	=103-	=103-	=103-	=103-	=103-	=103-	=103-	=103-	=103-
2.E-X/	ab-	.	1G	.	ab-	.	4G/	-ba-	.	2B-/	-q(ue)	.
.	.	.	.	.	.	.	4A/	.	.	.	.	.
.	.	.	.	.	.	.	1B-	.	.	2B-/	Ab-	.
4D/	-ba-	.	.	.	.	.	.	.	.	.	.	.
*	*	*	*custos:F	*	*	*	*	*	*	*	*	*
1C	-te(m)	.	1E-X	.	-ba-	.	.	.	.	1e-X	-ba-	.
.	.	.	.	.	.	.	2A/	.	.	.	.	.
=104-	=104-	=104-	=104-	=104-	=104-	=104-	=104-	=104-	=104-	=104-	=104-	=104-
*	*	*	*	*	*	*	*	*	*	*custos:c	*	*
!	!	!	!LO:LB:g=original	!	!	!	!	!	!	!	!	!
2BB-/	.	.	1F	.	-te(m)	.	2B-\	-tem	.	2d\	-tem	.
!	!	!	!	!	!	!	!	!	!	!LO:LB:g=original	!	!
1F	in	.	.	.	.	.	2A/	in	.	2c/	in	.
.	.	.	1C	.	in	.	1G	ma-	.	1c	ma-	.
2E\	ma-	.	.	.	.	.	.	.	.	.	.	.
=105-	=105-	=105-	=105-	=105-	=105-	=105-	=105-	=105-	=105-	=105-	=105-	=105-
1D	-ri	.	1F	.	ma-	.	1A	-ri	.	2d\	-ri	.
.	.	.	.	.	.	.	.	.	.	2.d\	an-	.
1BB-	an-	.	1B-	.	-ri	.	1d	.	.	.	.	.
.	.	.	.	.	.	.	.	.	.	4e\	-xi-	.
.	.	.	.	.	.	.	.	.	.	1f\	.	.
=106-	=106-	=106-	=106-	=106-	=106-	=106-	=106-	=106-	=106-	=106-	=106-	=106-
1C	-xi-	.	1G	.	an-	.	1c	an-	.	.	.	.
.	.	.	.	.	.	.	.	.	.	2e\	.	.
2FF/	-u(m)	.	1F	.	-xi-	.	2A/	-xi-	.	2f\	-um	.
2BB-/	ad	.	.	.	.	.	2B-\	-u(m)	.	2d\	ad	.
=107-	=107-	=107-	=107-	=107-	=107-	=107-	=107-	=107-	=107-	=107-	=107-	=107-
*custos:FF	*	*	*	*	*	*	*	*	*	*	*	*
1BB-	por-	.	1F	.	-um	.	1B-	ad	.	1d	por-	.
!LO:LB:g=original	!	!	!	!	!	!	!	!	!	!	!	!
1FF	-tu(m)	.	1F	.	ad	.	1A	por-	.	1c	.	.
=108-	=108-	=108-	=108-	=108-	=108-	=108-	=108-	=108-	=108-	=108-	=108-	=108-
*	*	*	*	*	*	*	*custos:F	*	*	*	*	*
1BB-	ſa-	.	1D	.	por-	.	2G/	-tu(m)	.	1B-	-tu(m)	.
!	!	!	!	!	!	!	!LO:PB:g=original	!	!	!	!	!
.	.	.	.	.	.	.	1F	ſa-	.	.	.	.
1C	-lu-	.	1C	.	-tu(m)	.	.	.	.	1G	ſa-	.
.	.	.	.	.	.	.	2E/	-lu-	.	.	.	.
=109-	=109-	=109-	=109-	=109-	=109-	=109-	=109-	=109-	=109-	=109-	=109-	=109-
2FF/	-tis	.	1F	.	ſa-	.	2F/	-tis	.	2A/	-lu-	.
1BB-	tranſ-	.	.	.	.	.	1D	tranſ-	.	1d	-tis	.
.	.	.	1G	.	-lu-	.	.	.	.	.	.	.
2C/	.	.	.	.	.	.	2E/	-du-	.	4c/	ſa-	.
.	.	.	.	.	.	.	.	.	.	4B-/	-lu-	.
=110-	=110-	=110-	=110-	=110-	=110-	=110-	=110-	=110-	=110-	=110-	=110-	=110-
0D	-tu-	.	1D	.	-tis	.	0F	-xi-	.	1A	-tis	.
*	*	*	*	*	*	*	*	*	*	*custos:B-	*	*
.	.	.	1F	.	tranſ-	.	.	.	.	1d	tra(n)s-	.
=111-	=111-	=111-	=111-	=111-	=111-	=111-	=111-	=111-	=111-	=111-	=111-	=111-
!	!	!	!	!	!	!	!	!	!	!LO:LB:g=original	!	!
1GG	-liſ-	.	1G	.	-tu-	.	1D	-ſti	.	2B-/	-tu-	.
.	.	.	.	.	.	.	.	.	.	2B-/	-liſ-	.
*	*	*	*custos:D	*	*	*	*	*	*	*	*	*
1FF	-ti	.	1A	.	-li-	.	2r	.	.	1c	-ti	.
*	*	*	*	*	*	*	*	*ij	*	*	*	*
.	.	.	.	.	.	.	1F/	tranſ-	.	.	.	.
=112-	=112-	=112-	=112-	=112-	=112-	=112-	=112-	=112-	=112-	=112-	=112-	=112-
!LO:SIC:v:l:s=vul-:verse 1	!	!	!LO:PB:g=original	!	!	!	!	!	!	!	!	!
1BB-	uul-	.	1D	.	-ſti	.	.	.	.	1d	.	.
.	.	.	.	.	.	.	1G	-du-	.	.	.	.
!	!	!	!LO:SIC:v:l:s=vul-:verse 2	!	!	!	!	!	!	!	!	!
1C	-tu	.	1C	.	uul-	.	.	.	.	2G/	.	.
!	!	!	!	!	!	!	!	!	!	!LO:SIC:v:l:s=vul-:verse 1	!	!
.	.	.	.	.	.	.	1A\	-xi-	.	2c/	uul-	.
=113-	=113-	=113-	=113-	=113-	=113-	=113-	=113-	=113-	=113-	=113-	=113-	=113-
4D/	.	.	1F	.	-tu	.	.	.	.	2A/	.	.
4C/	le-	.	.	.	.	.	.	.	.	.	.	.
4BB-/	-tiſ-	.	.	.	.	.	2D/	-ſti	.	2d\	-tu	.
4AA/	.	.	.	.	.	.	.	.	.	.	.	.
*	*	*	*	*	*	*	*	*Xij	*	*	*	*
!	!	!	!	!	!	!	!LO:SIC:v:l:s=vul-:verse 1	!	!	!	!	!
!	!	!	!	!	!	!	!	!	!	!LO:SIC:v:l:s=le-	!	!
2.GG/	.	.	1G	.	le-	.	1d	uul-	.	2.B-/	let-	.
4AA/	.	.	.	.	.	.	.	.	.	4c/	.	.
=114-	=114-	=114-	=114-	=114-	=114-	=114-	=114-	=114-	=114-	=114-	=114-	=114-
*	*	*	*	*	*	*	*	*^	*	*	*	*
*custos:C	*	*	*	*	*	*	*	*	*	*	*	*	*
!	!	!	!	!	!	!	!LO:TX:t=P:problem=skreślenia tekstu	!	!	!	!	!	!
!	!	!	!	!	!	!	!LO:TX:t=P:problem=skreślony tekst "tuum climonium" (odczyt niepewny) zapisany powyżej tekstu głównego	!	!	!	!	!	!
1BB-	.	.	1D	.	-tiſ-	.	2B-\	-tu	[[tu-	.	1d	-tiſ-	.
.	.	.	.	.	.	.	2B-\	le-	-um	.	.	.	.
!LO:PB:g=original	!	!	!	!	!	!	!	!	!	!	!	!	!
1C	-ſi-	.	1E	.	-si-	.	2G/	-tiſ-	cli-	.	1c	-ſi-	.
.	.	.	.	.	.	.	2G/	-ſi-	-mo-	.	.	.	.
=115-	=115-	=115-	=115-	=115-	=115-	=115-	=115-	=115-	=115-	=115-	=115-	=115-	=115-
*	*	*	*	*	*	*	*custos:A	*	*	*	*	*	*
!LO:TX:a:t=29	!	!	!LO:TX:a:t=29	!	!	!	!LO:TX:a:t=29	!	!	!	!LO:TX:a:t=29	!	!
0FF;l	-mo	.	0F;l\	.	-mo	.	0A;l	-mo	-nium]]	.	0c;l	-mo	.
*	*	*	*	*	*	*	*	*v	*v	*	*	*	*
=116-	=116-	=116-	=116-	=116-	=116-	=116-	=116-	=116-	=116-	=116-	=116-	=116-
!	!	!	!	!	!	!	!LO:LB:g=original	!	!	!	!	!
!	!	!	!LO:TX:t=P:problem=tekst "Basilienis" dopisany innym tuszem i mniej kaligraficznym duktem	!	!	!	!LO:TX:t=P:problem=tekst "Basilienis" dopisany innym tuszem i mniej kaligraficznym duktem	!	!	!LO:TX:t=P:problem=tekst "Basilienis" dopisany innym tuszem i mniej kaligraficznym duktem	!	!
1r	.	.	1F	.	Ec-	Ba-	1A	Ec-	Ba-	1c	Ec-	Ba-
2r	.	.	1D	.	-cle-	-ſi-	2A/	-cle-	-ſi-	2d/	-cle-	-ſi-
*	*	*	*	*	*	*	*	*	*	*custos:c	*	*
!LO:TX:t=P:problem=tekst "Basilienis" dopisany innym tuszem i mniej kaligraficznym duktem	!	!	!	!	!	!	!	!	!	!	!	!
1F\	Ec-	Ba-	.	.	.	.	2F/	-ſi-	-li-	2B-/	-ſi-	-li-
=117-	=117-	=117-	=117-	=117-	=117-	=117-	=117-	=117-	=117-	=117-	=117-	=117-
!	!	!	!	!	!	!	!	!	!	!LO:LB:g=original	!	!
.	.	.	1C	.	-ſi-	-li-	2G/	-a	-en-	2c/	-a	-en-
2E/	-cle-	-ſi-	.	.	.	.	1A	ro-	-ſis	2c/	Ro-	-ſis
2D/	-ſi-	-li-	1F	.	-a	-en-	.	.	.	2.d\	-ma-	Sy-
2BB-/	-a	-en-	.	.	.	.	2.B-\	-ma-	Sii-	.	.	.
.	.	.	.	.	.	.	.	.	.	4c/	.	-no-
=118-	=118-	=118-	=118-	=118-	=118-	=118-	=118-	=118-	=118-	=118-	=118-	=118-
1D	Ro-	-ſis	1F	.	Ro-	-ſiv	.	.	.	4d\	.	.
.	.	.	.	.	.	.	4G/	-na	.	4e\	.	.
.	.	.	.	.	.	.	4A/	.	.	1f	.	.
.	.	.	.	.	.	.	4B-\	.	.	.	.	.
1C	-ma-	Sii-	1G	.	-ma-	Si-	1c	.	-no-	.	.	.
.	.	.	.	.	.	.	.	.	.	2e\	-na	.
=119-	=119-	=119-	=119-	=119-	=119-	=119-	=119-	=119-	=119-	=119-	=119-	=119-
2FF/	.	-no-	1F	.	-na	-no-	2A/	.	-dus	2f\	.	-dus
2BB-/	-na	-sud	.	.	.	.	2D/	ap-	or-	2d\	ap-	or-
*	*	*	*custos:G	*	*	*	*	*	*	*	*	*
2AA/	ap-	or-	1A	.	ap-	-dus	2E/	-pro-	-do	2c/	-pro-	-do
2FF/	-pro-	-do	.	.	.	.	2F/	.	mi-	2A/	-bat	mi-
=120-	=120-	=120-	=120-	=120-	=120-	=120-	=120-	=120-	=120-	=120-	=120-	=120-
!	!	!	!LO:LB:g=original	!	!	!	!	!	!	!	!	!
4GG/	-bat	.	1G	.	-pro-	or-	2D/	-bat	 no-	1B-	.	-no-
4AA/	.	mi-	.	.	.	.	.	.	.	.	.	.
4BB-/	con-	.	.	.	.	.	4D/	con-	-ru(m)	.	.	.
*custos:D	*	*	*	*	*	*	*	*	*	*	*	*
4C/	.	.	.	.	.	.	4E/	.	.	.	.	.
!LO:LB:g=original	!	!	!	!	!	!	!	!	!	!	!	!
2D/	.	.	1F	.	-bat,	-do	4F/	-fir-	.	2.A/	con-	-rum
*	*	*	*	*	*	*	*custos:A	*	*	*	*	*
.	.	.	.	.	.	.	4G/	.	.	.	.	.
!	!	!	!	!	!	!	!LO:LB:g=original	!	!	!	!	!
4C/	.	-no-	.	.	.	.	1A\	.	.	.	.	.
4BB-/	.	.	.	.	.	.	.	.	.	4B-/	.	.
=121-	=121-	=121-	=121-	=121-	=121-	=121-	=121-	=121-	=121-	=121-	=121-	=121-
1AA	-fir-	-ru(m)	1A	.	con-	mi-	.	.	.	2c/	.	.
.	.	.	.	.	.	.	4G/	.	.	1d	.	.
.	.	.	.	.	.	.	4F/	.	.	.	.	.
1AA	-mat	.	1A	.	-fir-	-no-	2E/	-mat	.	.	.	.
*	*	*	*	*	*	*	*	*	*	*custos:d	*	*
.	.	.	.	.	.	.	1A\	hoc	sic	2c/	-fir-	.
*	*	*	*clefC5	*	*	*	*	*	*	*	*	*
=122-	=122-	=122-	=122-	=122-	=122-	=122-	=122-	=122-	=122-	=122-	=122-	=122-
*	*^	*	*	*	*	*	*	*	*	*	*	*
!	!	!	!	!	!	!	!	!	!	!	!LO:PB:g=original	!	!
2D/	.	.	.	1F	.	-mat,	-ru(m)	.	.	.	1d	-mat	.
2D/	[[ad	hoc	ſic	.	.	.	.	1F	.	.	.	.	.
1BB-	por-	feſ-	aſſ-	1F	.	hoc	ſic	.	.	.	2r	.	.
.	.	.	.	.	.	.	.	1D/	feſ-	aſ-	2d/	hoc	ſic
=123-	=123-	=123-	=123-	=123-	=123-	=123-	=123-	=123-	=123-	=123-	=123-	=123-	=123-
1GG	-tu(m)	-tum	-ſiſ-	1G	.	feſ-	aſſiſ-	.	.	.	1B-	.	a-
.	.	.	.	.	.	.	.	2G/	-tu(m)	-ſiſ-	.	.	.
1C	ſa]]	ſit	-tant	1G	.	-tu(m)	-tant	1E	.	-tant	2G/	feſ-	-ſiſ-
.	.	.	.	.	.	.	.	.	.	.	1c\	-tu(m)	-tant
*	*v	*v	*	*	*	*	*	*	*	*	*	*	*
=124-	=124-	=124-	=124-	=124-	=124-	=124-	=124-	=124-	=124-	=124-	=124-	=124-
2FF/	.	.	1F	.	ſit	Re-	4F/	ſic	Re-	.	.	.
.	.	.	.	.	.	.	4G/	.	.	.	.	.
2.FF/	ce-	Re-	.	.	.	.	4A\	.	.	4F/	ſic	Re-
.	.	.	.	.	.	.	4B-\	.	.	4G/	.	.
*	*	*	*lig	*	*	*	*	*	*	*	*	*
.	.	.	1F	.	ce-	-gi-	2c\	.	.	4A/	ce-	.
4GG/	-le-	-gi-	.	.	.	.	.	.	.	4B-/	.	.
4AA/	.	-na	.	.	.	.	2A/	ce-	.	4c/	.	.
4BB-/	.	.	.	.	.	.	.	.	.	4d\	.	.
=125-	=125-	=125-	=125-	=125-	=125-	=125-	=125-	=125-	=125-	=125-	=125-	=125-
2C/	.	ce-	1E	.	.	-ne	2G/	-le-	-gi-	2e\	.	.
2AA/	.	-lo-	.	.	.	.	2A/	.	-ne	2c\	-le-	-gi-
*	*	*	*Xlig	*	*	*	*	*	*	*	*	*
0BB-	-bran-	-ru(m)	1D	.	-le-	ce-	1F	.	ce-	1.d	-bran-	-ne
=126-	=126-	=126-	=126-	=126-	=126-	=126-	=126-	=126-	=126-	=126-	=126-	=126-
.	.	.	1F	.	-bra(n)-	-lo-	1B-	-bran-	-lo-	.	.	.
.	.	.	.	.	.	.	.	.	.	4c/	.	ce-
.	.	.	.	.	.	.	.	.	.	4B-/	.	-lo-
*custos:F	*	*	*custos:D	*	*	*	*	*	*	*	*	*
*	*	*	*	*	*	*	*custos:A	*	*	*custos:f	*	*
!LO:TX:a:t=22	!	!	!LO:TX:a:t=22	!	!	!	!	!	!	!	!	!
1FF;l	-du(m)	.	1F;l	.	-dum	-ru(m)	1A;l	-d(um)	-rum	1c;l	-dum	-ru(m)
*	*	*	*clefC4	*	*	*	*	*	*	*	*	*
=127-	=127-	=127-	=127-	=127-	=127-	=127-	=127-	=127-	=127-	=127-	=127-	=127-
!LO:LB:g=original	!	!	!LO:LB:g=original	!	!	!	!LO:LB:g=original	!	!	!LO:LB:g=original	!	!
1F	Re-	.	1D	.	Re-	.	1A	Re-	.	1f	Re-	.
1BB-	-gi-	.	1F	.	-gi-	.	1B-	-gi-	.	1d	-gi-	.
=128-	=128-	=128-	=128-	=128-	=128-	=128-	=128-	=128-	=128-	=128-	=128-	=128-
2C/	-na	.	1E	.	-na	.	1G	-na	.	2c/	-na	.
1C	le-	.	.	.	.	.	.	.	.	1e	l(ae)-	.
.	.	.	1G	.	le-	.	1c	le-	.	.	.	.
4BB-/	.	.	.	.	.	.	.	.	.	4d\	.	.
4AA/	.	.	.	.	.	.	.	.	.	4c\	.	.
=129-	=129-	=129-	=129-	=129-	=129-	=129-	=129-	=129-	=129-	=129-	=129-	=129-
*	*	*	*	*	*	*	*lig	*	*	*	*	*
4GG/	.	.	1G	.	-ta	.	1B-	.	.	1d	-ta	.
4AA/	.	.	.	.	.	.	.	.	.	.	.	.
4BB-/	.	.	.	.	.	.	.	.	.	.	.	.
4C/	.	.	.	.	.	.	.	.	.	.	.	.
*	*	*	*lig	*	*	*	*	*	*	*	*	*
1D	-ta	.	1F	.	nos	.	1A	.	.	2d\	.	.
.	.	.	.	.	.	.	.	.	.	2.d\	nos	.
*	*	*	*	*	*	*	*Xlig	*	*	*	*	*
=130-	=130-	=130-	=130-	=130-	=130-	=130-	=130-	=130-	=130-	=130-	=130-	=130-
2E\	nos	.	1E	.	.	.	2G/	-ta	.	.	.	.
.	.	.	.	.	.	.	.	.	.	4c\	.	.
2.G\	.	.	.	.	.	.	2E/	nos	.	1c	.	.
*	*	*	*Xlig	*	*	*	*	*	*	*	*	*
.	.	.	1D	.	fre-	.	1F	fre-	.	.	.	.
4F\	.	.	.	.	.	.	.	.	.	.	.	.
1F\	.	.	.	.	.	.	.	.	.	2B-/	fre-	.
=131-	=131-	=131-	=131-	=131-	=131-	=131-	=131-	=131-	=131-	=131-	=131-	=131-
*	*	*	*	*	*	*	*lig	*	*	*	*	*
.	.	.	1C	.	-ta	.	1G	-ta	.	0.c	-ra	.
2E\	fre-	.	.	.	.	.	.	.	.	.	.	.
2F\	-ta	.	1F	.	col-	.	1A	.	.	.	.	.
2.FF/	col-	.	.	.	.	.	.	.	.	.	.	.
*	*	*	*	*	*	*	*Xlig	*	*	*	*	*
=132-	=132-	=132-	=132-	=132-	=132-	=132-	=132-	=132-	=132-	=132-	=132-	=132-
!	!	!	!	!	!	!	!LO:SIC:v:l:s=col-:verse 1	!	!	!	!	!
.	.	.	1F	.	-lo-	.	1A	co-	.	.	.	.
4GG/	.	.	.	.	.	.	.	.	.	.	.	.
4AA/	.	.	.	.	.	.	.	.	.	.	.	.
*custos:C	*	*	*	*	*	*	*	*	*	*	*	*
4BB-/	.	.	.	.	.	.	.	.	.	.	.	.
2C/	-lo-	.	1C	.	-ca	.	1G	-lo-	.	2r	.	.
2C/	-ca	.	.	.	.	.	.	.	.	2c/	col-	.
=133-	=133-	=133-	=133-	=133-	=133-	=133-	=133-	=133-	=133-	=133-	=133-	=133-
!	!	!	!LO:SIC:v:l:s=v-:verse 2	!	!	!	!	!	!	!	!	!
2FF/	.	.	1F	.	v-	.	2A/	-ca	.	1c	-lo-	.
!	!	!	!	!	!	!	!LO:SIC:v:l:s=v-:verse 1	!	!	!	!	!
2F\	u-	.	.	.	.	.	2A/	v-	.	.	.	.
1D	-bi	.	1A	.	-bi	.	1d	-bi	.	2F/	-ca	.
*	*	*	*	*	*	*	*	*	*	*custos:d	*	*
!	!	!	!	!	!	!	!	!	!	!LO:SIC:v:l:s=v-:verse 1	!	!
.	.	.	.	.	.	.	.	.	.	2f\	v-	.
=134-	=134-	=134-	=134-	=134-	=134-	=134-	=134-	=134-	=134-	=134-	=134-	=134-
*	*	*	*lig	*	*	*	*	*	*	*	*	*
!	!	!	!	!	!	!	!	!	!	!LO:LB:g=original	!	!
1G	.	.	1G	.	nu(n)c	.	1B-	nu(n)c	.	1d	-bi	.
1C	nu(n)c	.	1c	.	.	.	1G	es	.	1e	nu(n)c	.
*	*	*	*Xlig	*	*	*	*	*	*	*	*	*
=135-	=135-	=135-	=135-	=135-	=135-	=135-	=135-	=135-	=135-	=135-	=135-	=135-
1F	eſ	.	1c	.	es	.	1A	cu(m)	.	2c/	.	.
.	.	.	.	.	.	.	.	.	.	2f\	es	.
1C	cum	.	1c	.	cu(m)	.	1G	di-	.	2e\	cum	.
.	.	.	.	.	.	.	.	.	.	2.e\	di-	.
=136-	=136-	=136-	=136-	=136-	=136-	=136-	=136-	=136-	=136-	=136-	=136-	=136-
*	*	*	*custos:d	*	*	*	*custos:C	*	*	*	*	*
1C	di-	.	1c	.	di-	.	0G	-le-	.	.	.	.
.	.	.	.	.	.	.	.	.	.	4d\	-lec-	.
.	.	.	.	.	.	.	.	.	.	1c	-to	.
!	!	!	!LO:LB:g=original	!	!	!	!	!	!	!	!	!
1GG	-lec-	.	1d	.	-lec-	.	.	.	.	.	.	.
.	.	.	.	.	.	.	.	.	.	2B-/	.	.
=137-	=137-	=137-	=137-	=137-	=137-	=137-	=137-	=137-	=137-	=137-	=137-	=137-
!	!	!	!	!	!	!	!LO:PB:g=original	!	!	!	!	!
2AA/	-to	.	1c	.	-to	.	2C/	-cto	.	2c/	fi-	.
2FF/	fi-	.	.	.	.	.	1F	.	.	2A/	-li-	.
2C/	-li-	.	1c	.	fi-	.	.	.	.	1G	-o	.
2C/	-o	.	.	.	.	.	2E/	fi-	.	.	.	.
=138-	=138-	=138-	=138-	=138-	=138-	=138-	=138-	=138-	=138-	=138-	=138-	=138-
2D/	in	.	1B-	.	-li-	.	2F/	-li-	.	1r	.	.
2E\	ce-	.	.	.	.	.	2G/	-o	.	.	.	.
2.F\	-leſ-	.	1A	.	-o	.	4D/	in	.	2r	.	.
.	.	.	.	.	.	.	4E/	.	.	.	.	.
.	.	.	.	.	.	.	4F/	.	.	2c/	in	.
*custos:D	*	*	*	*	*	*	*	*	*	*	*	*
4E\	-ti	.	.	.	.	.	4G/	.	.	.	.	.
=139-	=139-	=139-	=139-	=139-	=139-	=139-	=139-	=139-	=139-	=139-	=139-	=139-
!LO:PB:g=original	!	!	!	!	!	!	!	!	!	!	!	!
2.D/	le-	.	1F	.	in	.	2A\	cae-	.	1d	.	.
.	.	.	.	.	.	.	2B-\	.	.	.	.	.
8C/L	.	.	.	.	.	.	.	.	.	.	.	.
8BB-/J	.	.	.	.	.	.	.	.	.	.	.	.
2AA/	.	.	1A	.	ce-	.	0c	-leſ-	.	2e\	.	.
2FF/	.	.	.	.	.	.	.	.	.	1f\	ce-	.
=140-	=140-	=140-	=140-	=140-	=140-	=140-	=140-	=140-	=140-	=140-	=140-	=140-
*lig	*	*	*	*	*	*	*	*	*	*	*	*
1C	-ſti	.	1G	.	-leſ-	.	.	.	.	.	.	.
*	*	*	*	*	*	*	*	*	*	*custos:d	*	*
.	.	.	.	.	.	.	.	.	.	2e\	-le-	.
!	!	!	!	!	!	!	!	!	!	!LO:LB:g=original	!	!
1BB-	.	.	1B-	.	-ti	.	1d	-ti	.	2d\	-ſti	.
.	.	.	.	.	.	.	.	.	.	1f\	ſo-	.
*Xlig	*	*	*	*	*	*	*	*	*	*	*	*
=141-	=141-	=141-	=141-	=141-	=141-	=141-	=141-	=141-	=141-	=141-	=141-	=141-
1.C	ſo-	.	1G	.	ſo-	.	1.c	ſo-	.	.	.	.
.	.	.	.	.	.	.	.	.	.	4e\	.	.
.	.	.	.	.	.	.	.	.	.	4d\	.	.
.	.	.	1G	.	-li-	.	.	.	.	2e\	.	.
!	!	!	!	!	!	!	!	!	!	!LO:TX:a:t=30	!	!
2C/	-li-	.	.	.	.	.	2c\	-li-	.	2e\	-li-	.
=142-	=142-	=142-	=142-	=142-	=142-	=142-	=142-	=142-	=142-	=142-	=142-	=142-
!	!	!	!LO:TX:b:t=4	!	!	!	!	!	!	!	!	!
!	!	!	!LO:TX:a:t=31	!	!	!	!	!	!	!	!	!
2FF/	-o	.	00F;;l\	.	-o	.	2A/	-o	.	2f\	-o	.
2.BB-/	ſo-	.	.	.	.	.	1B-	ſo-	.	1d	ſo-	.
4C/	.	.	.	.	.	.	.	.	.	.	.	.
4D/	.	.	.	.	.	.	4A/	.	.	4c/	.	.
4E\	.	.	.	.	.	.	4G/	.	.	4B-/	.	.
=143-	=143-	=143-	=143-	=143-	=143-	=143-	=143-	=143-	=143-	=143-	=143-	=143-
2F\	.	.	.	.	.	.	2.F/	.	.	2.A/	.	.
2FF/	-li-	.	.	.	.	.	.	.	.	.	.	.
.	.	.	.	.	.	.	4G/	-li-	.	4B-/	-li-	.
!LO:TX:a:t=34	!	!	!	!	!	!	!LO:TX:a:t=34	!	!	!LO:TX:a:t=34	!	!
1FF;l	-o:	.	.	.	.	.	1A;l	-o	.	1c;l	-o	.
==	==	==	==	==	==	==	==	==	==	==	==	==
*-	*-	*-	*-	*-	*-	*-	*-	*-	*-	*-	*-	*-
!!!system-decoration: [(s1,s2,s3,s4)]
!!!ENC: Mateusz Solarz
!!!END: 2022-03-02
!!!AIN: 1 alto 1 bass 1 soprn 1 tenor
!!!ENC: Kamil Watkowski
!!!END: 2022-03-13
!!!RDF**kern: > = above
!!!RDF**kern: < = below
!!!RDF**kern: l = terminal long
